X:672
M:C
L:1/8
K:F
E/F/G G/A/B AFF:|
g|f/g/a/g/ ~f<c d<f~f<g|f/g/a/g/ ~f<d e>g~g>a|f/g/a/g/ ~f<c d>f c<A|
a>b g<a f<gd<f|B/c/d G/A/B A<FF||

